X:1
T:Gloria Patri
T:Gloria Patri
T:from Laudate pueri - RV 601
T:Antonio Vivaldi (1678 - 1741)
T:www.gardane.info
T:www.gardane.info
T:www.gardane.info
T:www.gardane.info
T:www.gardane.info
T:www.gardane.info
C:Antonio Vivaldi (1678 - 1741)
Z:www.gardane.info
%%score 1 2 3 4
L:1/8
Q:1/4=35
M:4/4
K:C
V:1 treble nm="Alt-blokfluit" snm="A. Blf."
V:2 treble nm="Tenor-blokfluit" snm="T. Blf."
V:3 bass+8 nm="Bas-blokfluit" snm="Bs. Blf."
V:4 bass nm="Viola da gamba" snm="Vla. d. g."
V:1
"^Grave" ec/B/ Aa/e/ (e/f/)e z a | b/a/^g/=f/ eb (3(b/c'/)b/a z e | %2
 fd'- d'/>c'/b/4a/4g/4f/4 ec'- c'/>b/a/4g/4f/4e/4 | db- b/>a/^g/4^f/4e/4d/4 cde=f | %4
 ge z a Tfe z e | fe/d/ ^g^f/e/ ae z b | c'b/a/ T^ga a2 z2 | z8 | z8 | a>b d'/c'/b/a/ b4 | %10
 g>d' c'/b/a/g/ a4 | d/d/e/f/ e/e/f/g/ B/B/c/d/ c/c/d/e/ | dB d2- dc/B/ c2- | %13
 c2 TB2 cg (f/e/)d/c/ | ag z c' d'/c'/b/a/ g/f/e/d/ | e/e/f/g/ f/f/g/a/ gc/d/ Td2 | c2 z2 z4 | %17
 z4 z2 d2- | dB/A/ TBA/^G/ Ae a2- | ag/f/ ed cA z2 | df ad'/c'/ b4 | c/d/e/f/ g/a/b/c'/ a4 | %22
 B/c/d/e/ f/g/a/b/ ^g4 | a2 z c' c'/d'/c' z/ c'/d'/c'/ | b/c'/b z/ b/c'/b/ a/b/a z/ a/b/a/ | %25
 ^gegb c'4 | a2 T^g2 a/g/f/e/ d/c/B/A/ | e2 z2 z4 | ad dd/e/ =f2 ^g2 | a2 T^g2 !fermata!a4 || %30
 ec/B/ Aa/e/ e/f/e z a | b/a/^g/^f/ eb (3b/c'/b/a z e | %32
 e(d' d'/>)c'/b/4a/4g/4f/4 e(c' c'/>)b/a/4g/4f/4e/4 | d(b b/>)a/^g/4^f/4e/4d/4 TcTdTeT=f | %34
 Tfe z a Tfe z e | fe/d/ ^g=f/e/ ae z b | c'b/a/ T^ga !fermata!a2 z2 |] %37
V:2
 z!mp! EEE z EEE | z ^GGG z EEE | z AAB z GGA | z FFA z4 | z8 | AABB cdeE | ccBB e/d/c/B/ Aa/e/ | %7
 Tf/e/e d2- df e/d/c/B/ | Tc/B/A z2 e>a a/g/f/e/ | f4 d>a g/f/e/d/ | e4 c>g f/e/d/c/ | %11
 B/B/c/d/ c/c/d/e/ d/d/e/f/ e/e/f/g/ | BG f2- ff/d/ ed/c/ | d4 cGGG | z GGG z GGG | z ecc eedd | %16
 g/f/e/d/ cg/e/ Te/d/d z2 | a/g/f/e/ da/f/ Tf/e/e f2- | fd/c/ dc/B/ cA z2 | z4 Ac ea/e/ | %20
 f4 G/A/B/c/ d/e/f/g/ | e4 F/G/A/B/ c/d/e/f/ | d4 E/^F/^G/A/ B/c/d/e/ | c2 z e e/f/e z/ e/f/e/ | %24
 d/e/d z/ d/e/d/ c/d/c z/ c/d/c/ | B2 z2 Ac ea/e/ | f/e/d/c/ TB2 A2 z2 | eA AA/A/ _B2 ^c2 | d8 | %29
 c/e/d/c/ TB2 !fermata!A4 || z EEE z EEE | z ^GGG z EEE | z4 z GGA | z FFA z4 | z8 | AABB cc gE | %36
 ccBB !fermata!c2 z2 |] %37
V:3
 z!mp! C,C,C, z C,C,C, | z E,E,E, z C,C,C, | z F,F,F, z E,E,E, | z D,D,F, E,D,C,D, | %4
 D,C,C,C, D,C,C,C, | F,F,E,E, E,D,C,B,, | E,E,E,E, C,2 z2 | z8 | z8 | z8 | z8 | z8 | z8 | %13
 z4 z E,E,E, | z E,E,E, z D,D,D, | z G,A,A, CCCB, | C2 z2 z4 | z8 | z8 | z8 | z8 | z8 | z8 | %23
 z C,C,C, C,C,C,C, | D,B,,B,,B,, C,^F,F,F, | ^G,G,G,G, E,E,E,E, | E,E,E,E, E,E,E,E, | C,2 z2 z4 | %28
 z8 | z8 || z C,C,C, z C,C,C, | z E,E,E, z C,C,C, | z F,F,F, z E,E,E, | z D,D,F, E,D,C,D, | %34
 D,C,C,C, D,C,C,C, | F,F,E,E, E,D,C,B,, | E,E,E,E, !fermata!C,2 z2 |] %37
V:4
 z!mp! !0!A,A,A, z A,A,A, | z !0!E,E,E, z !0!A,A,A, | z !2!D,D,D, z !0!C,C,C, | %3
 z !4!B,,B,,B,, !2!A,,!0!A,A,A, | !0!A,A,A,A, A,A,A,A, | !0!DDDD !3!C!2!B,!0!A,!4!^G, | %6
 !0!A,!0!A,!2!E!0!E, !0!A, !2!A,,A,,A,, | z !3!C!2!B,!0!A, !4!^G,!3!C!4!G,!0!E, | %8
 !0!A, !2!A,,A,,A,, z !2!A,,A,,A,, | z !2!D,D,D, z !3!G,G,G, | z !0!C,C,C, z !1!F,F,!2!^F, | %11
 !3!G,8- | G, !4!B,,!2!A,,!0!G,, !3!G,!0!G,,!0!C,!3!C | !3!G,!1!F, !3!G,!0!G,, !0!C,C,C,C, | %14
 z !0!C,C,C, z !4!B,,B,,B,, | z !0!C,!1!F,F, !0!C,C,!0!G,,G,, | !0!C,C,C,C, z !3!G,G,!1!^C, | %17
 z !2!D,D,D, z !0!A,!0!D^G, | !0!A,!2!A,,!2!D,!0!E, !2!A,,!4!B,,!0!C,!2!D, | %19
 !0!E,3 !4!^G, !0!A, !2!A,,A,,A,, | z !2!D,D,D, z !3!G,G,G, | z !0!C,C,C, z !1!F,F,F, | %22
 z !4!B,,B,,B,, z !0!E,E,E, | !2!A,,!0!A,A,A, A,A,A,A, | !2!B,!4!^G,G,G, !0!A,!3!^D,D,D, | %25
 !0!E,E,E,E, !0!A,A,A,A, | A,A,!0!E,E, !0!A,A,A,A, | A,!2!A,,A,,A,, !2!D,D,!4!E,E, | %28
 !1!F,F,F,!4!E, !2!D,D,!4!E,E, | !2!A,,A,,!4!E,E, !fermata!!2!A,,4 || z !0!A,A,A, z !0!A,A,A, | %31
 z !4!E,E,E, z !0!A,A,A, | z !2!D,D,D, z !0!C,C,C, | z !4!B,,B,,B,, !2!A,,!0!A,A,A, | %34
 A,A,A,A, A,A,A,A, | !0!DDDD !3!C!2!B,A,!4!^G, | !2!A,,2 !0!E,2 !fermata!!2!A,,2 z2 |] %37

